app/public/dtpr-icons/accessibility.svg

<svg width="36" height="36" viewBox="0 0 36 36" fill="none" xmlns="http://www.w3.org/2000/svg">
<path d="M31.8564 8.8453L19 1.42265C18.3812 1.06538 17.6188 1.06538 17 1.42265L4.14359 8.8453C3.52479 9.20257 3.14359 9.86282 3.14359 10.5774V25.4226C3.14359 26.1372 3.52479 26.7974 4.14359 27.1547L17 34.5774C17.6188 34.9346 18.3812 34.9346 19 34.5774L31.8564 27.1547C32.4752 26.7974 32.8564 26.1372 32.8564 25.4226V10.5774C32.8564 9.86282 32.4752 9.20256 31.8564 8.8453Z" fill="black" stroke="black" stroke-width="2"/>
<path fill-rule="evenodd" clip-rule="evenodd" d="M23 8C24.104 8 25 8.896 25 10C25 11.104 24.104 12 23 12C21.896 12 21 11.104 21 10C21 8.896 21.896 8 23 8Z" fill="white"/>
<path fill-rule="evenodd" clip-rule="evenodd" d="M18.0195 21.46H22.9995V25.46C22.9995 26.012 23.4475 26.46 23.9995 26.46C24.5525 26.46 24.9995 26.012 24.9995 25.46V20.96C24.9995 19.86 24.0995 18.96 22.9995 18.96H21.1395L22.8095 15.29C23.4195 13.96 22.4405 12.46 20.9595 12.46H15.7595C14.9505 12.46 14.2195 12.93 13.8895 13.66L13.6005 14.438C13.3955 14.987 13.7065 15.594 14.2715 15.751L14.2955 15.757C14.7795 15.89 15.2865 15.646 15.4825 15.184L15.7905 14.46H17.9995L16.1695 18.56L18.0195 21.46Z" fill="white"/>
<path fill-rule="evenodd" clip-rule="evenodd" d="M15 17.46C12.238 17.46 10 19.698 10 22.46C10 25.222 12.238 27.46 15 27.46C17.762 27.46 20 25.222 20 22.46C20 19.698 17.762 17.46 15 17.46ZM15 19.46C16.654 19.46 18 20.806 18 22.46C18 24.114 16.654 25.46 15 25.46C13.346 25.46 12 24.114 12 22.46C12 20.806 13.346 19.46 15 19.46Z" fill="white"/>
</svg>

<svg xmlns="http://www.w3.org/2000/svg" width="36" height="36" fill="none"><path fill="#000" stroke="#000" stroke-width="2" d="M31.856 8.845 19 1.423a2 2 0 0 0-2 0L4.144 8.845a2 2 0 0 0-1 1.732v14.846a2 2 0 0 0 1 1.732L17 34.577a2 2 0 0 0 2 0l12.856-7.422a2 2 0 0 0 1-1.732V10.577a2 2 0 0 0-1-1.732Z"/><path fill="#fff" fill-rule="evenodd" d="M23 8a2 2 0 1 1-.001 4.001A2 2 0 0 1 23 8M18.02 21.46H23v4a1 1 0 0 0 2 0v-4.5c0-1.1-.9-2-2-2h-1.86l1.67-3.67c.61-1.33-.37-2.83-1.85-2.83h-5.2c-.81 0-1.54.47-1.87 1.2l-.29.778a1 1 0 0 0 .672 1.313l.024.006a1 1 0 0 0 1.187-.573l.307-.724H18l-1.83 4.1z" clip-rule="evenodd"/><path fill="#fff" fill-rule="evenodd" d="M15 17.46a5 5 0 0 0-5 5 5 5 0 0 0 5 5 5 5 0 0 0 5-5 5 5 0 0 0-5-5m0 2c1.654 0 3 1.346 3 3s-1.346 3-3 3-3-1.346-3-3 1.346-3 3-3" clip-rule="evenodd"/></svg>
